rospo-icon-theme-classic-common/48x48/apps/spacemacs.svg

<svg height="48" width="48" xmlns="http://www.w3.org/2000/svg"><rect fill="#8366b2" fill-opacity=".992" height="39.996" rx="20" ry="19.998" transform="matrix(0 -1 -1 0 0 0)" width="40" x="-44" y="-44"/><path d="m24 4c-11.079 0-19.998 8.92-19.998 20 0 .16772-.004.33329 0 .5.2642-10.846 9.087-19.5 19.998-19.5s19.734 8.6536 19.998 19.5c.004-.16671 0-.33228 0-.5 0-11.08-8.919-20-19.998-20z" fill="#fff" opacity=".1"/><path d="m4.0117 24.5c-.0041.167-.0117.332-.0117.5 0 11.08 8.92 20 20 20s20-8.92 20-20c0-.168-.008-.333-.012-.5-.264 10.846-9.076 19.5-19.988 19.5s-19.724-8.654-19.988-19.5z" opacity=".2"/><path d="m9.8183594 4.0019531c-1.2059561-.0238522-2.1571942.3142106-2.9902344 1.0507813-2.1088963 1.8742836-2.4134402 5.7504406-.7988281 11.1640626.1153232-.236565.2312075-.471959.3554687-.703125-1.1009078-4.338557-1.0455609-5.5869802.7382813-7.1523439 1.4332578-1.2520938 3.7034681-1.3545557 6.5410151-.2949219 5.043045 1.8831952 10.675122 4.9643358 16.410157 12.3046878.541262.692766.923236 1.161886 1.384765 1.742187-1.468917.02659-3.698466-.118701-5.61914-.466797-7.225559-1.309369-14.030146-3.856517-17.2207034-7.21289-.2856986-.300546-.5203742-.52494-.5214844-.5-.00131.0256.6423094 1.342768 1.4296876 2.925781l1.1855472 2.767578 1.759765.859375c1.914184.948186 4.35286 2.056976 9.648438 4.384766 5.801512 2.55014 8.398675 3.775839 11.033203 5.208984 2.111336 1.148543 4.257162 2.549212 5.339844 3.484375.368908.319948.453928.401857.486328.435547.0012-.02409.0283-.141128.01758-.236328-.07015-.519236-.474314-2.572477-.849609-4.472656-.0812-.430414-.169364-.859322-.253907-1.289063-.03886-.195837-.09041-.462419-.125-.636719-.05502-.277225-.117296-.539403-.173828-.8125-.79561-3.852314-1.722917-7.676432-2.900393-11.441406-.542985-1.714814-.884285-2.546908-1.443359-3.564453-.206921-.376727-2.493496-1.9212221-2.886719-2.1289062-.0064-.00328-.03267-.030195-.03711-.03125l-.002.00586c-.014369-.0071877-.114493-.0784237-.121046-.0800788l-.002.00391c-.0051-.00171-.0086-.00347-.0098-.00391-.02318.02138.156628.4156128.34961.757813 1.976739 3.505822 3.275569 8.767482 2.615234 11.71289-.01104.04576-.02043.09142-.03711.138672-.000842.0024-.0033.008-.0039.0098v.002c-.0016-.0005-.0045-.0016-.0059-.002-.01542.0057-.06045.01203-.08008.01758-.539473-.697548-1.010899-1.296871-1.669804-2.166052-4.046873-5.239178-11.436399-12.9328698-19.068359-15.3554686-.935576-.2676867-1.751036-.4114699-2.4746096-.4257813z" opacity=".2"/><path d="m9.8183594 3.0019531c-1.2059561-.0238522-2.1571942.3142106-2.9902344 1.0507813-2.1088963 1.8742836-2.4134402 5.7504403-.7988281 11.1640626.1153232-.236565.2312075-.471959.3554687-.703125-1.1009078-4.338557-1.0455609-5.5869802.7382813-7.1523439 1.4332578-1.2520938 3.7034681-1.3545557 6.5410151-.2949219 5.043045 1.8831952 10.675122 4.9643358 16.410157 12.3046878.541262.692766.923236 1.161886 1.384765 1.742187-1.468917.026588-3.698466-.118701-5.61914-.466797-7.225559-1.309369-14.030146-3.856517-17.2207034-7.21289-.2856986-.300546-.5203742-.52494-.5214844-.5-.0013132.0256.6423094 1.342768 1.4296876 2.925781l1.1855472 2.767578 1.759765.859375c1.914184.948186 4.35286 2.056976 9.648438 4.384766 5.801512 2.55014 8.398675 3.775839 11.033203 5.208984 2.111336 1.148543 4.257162 2.549212 5.339844 3.484375.368908.319948.453928.401857.486328.435547.00124-.024088.028298-.141128.017578-.236328-.070155-.519236-.474314-2.572477-.849609-4.472656-.0812-.430414-.169364-.859322-.253907-1.289063-.038859-.195837-.090406-.462419-.125-.636719-.055021-.277225-.117296-.539403-.173828-.8125-.795608-3.852314-1.722915-7.676432-2.900391-11.441406-.542985-1.714814-.884285-2.546908-1.443359-3.564453-.206921-.376727-2.493496-1.9212221-2.886719-2.1289062-.006433-.0032792-.032667-.0301949-.037109-.03125l-.001953.0058593c-.014417-.007187-.114541-.078423-.121094-.0800781l-.001953.0039062c-.0051-.0017099-.008566-.0034704-.009766-.0039062-.023181.0213795.156628.4156128.34961.7578125 1.976739 3.5058225 3.275569 8.7674825 2.615234 11.7128905-.011042.045762-.020431.091417-.037109.138672-.000842.002352-.00328.007964-.003906.009766v.001953c-.001602-.0005-.00446-.001642-.00586-.001953-.015418.005652-.060449.012027-.080078.017578-.539591-.697512-1.011017-1.296835-1.669922-2.166016-4.046873-5.239178-11.436399-12.9328698-19.068359-15.3554686-.935576-.2676867-1.751036-.4114699-2.4746096-.4257813z" fill="#fff"/></svg>

<svg xmlns="http://www.w3.org/2000/svg" width="48" height="48" version="1">
 <rect style="fill:#8366b2;fill-opacity:0.99199998" fill-opacity=".992" width="40" height="39.996" x="-44" y="-44" rx="20" ry="19.998" transform="matrix(0,-1,-1,0,0,0)"/>
 <path style="opacity:0.1" fill="#fff" d="m24 4c-11.079 0-19.998 8.92-19.998 20 0 0.16772-0.004 0.33329 0 0.5 0.2642-10.846 9.087-19.5 19.998-19.5s19.734 8.6536 19.998 19.5c0.004-0.16671 0-0.33228 0-0.5 0-11.08-8.919-20-19.998-20z"/>
 <path opacity=".2" d="m4.0117 24.5c-0.0041 0.167-0.0117 0.332-0.0117 0.5 0 11.08 8.92 20 20 20s20-8.92 20-20c0-0.168-0.008-0.333-0.012-0.5-0.264 10.846-9.076 19.5-19.988 19.5s-19.724-8.654-19.988-19.5z"/>
 <path style="opacity:0.2" d="M 9.8183594,4.0019531 C 8.6124033,3.9781009 7.6611652,4.3161637 6.828125,5.0527344 4.7192287,6.927018 4.4146848,10.803175 6.0292969,16.216797 6.1446201,15.980232 6.2605044,15.744838 6.3847656,15.513672 5.2838578,11.175115 5.3392047,9.9266918 7.1230469,8.3613281 8.5563047,7.1092343 10.826515,7.0067724 13.664062,8.0664062 c 5.043045,1.8831952 10.675122,4.9643358 16.410157,12.3046878 0.541262,0.692766 0.923236,1.161886 1.384765,1.742187 -1.468917,0.02659 -3.698466,-0.118701 -5.61914,-0.466797 -7.225559,-1.309369 -14.030146,-3.856517 -17.2207034,-7.21289 -0.2856986,-0.300546 -0.5203742,-0.52494 -0.5214844,-0.5 -0.00131,0.0256 0.6423094,1.342768 1.4296876,2.925781 l 1.1855472,2.767578 1.759765,0.859375 c 1.914184,0.948186 4.35286,2.056976 9.648438,4.384766 5.801512,2.55014 8.398675,3.775839 11.033203,5.208984 2.111336,1.148543 4.257162,2.549212 5.339844,3.484375 0.368908,0.319948 0.453928,0.401857 0.486328,0.435547 0.0012,-0.02409 0.0283,-0.141128 0.01758,-0.236328 -0.07015,-0.519236 -0.474314,-2.572477 -0.849609,-4.472656 -0.0812,-0.430414 -0.169364,-0.859322 -0.253907,-1.289063 -0.03886,-0.195837 -0.09041,-0.462419 -0.125,-0.636719 -0.05502,-0.277225 -0.117296,-0.539403 -0.173828,-0.8125 C 36.800095,22.70042 35.872788,18.876302 34.695312,15.111328 34.152327,13.396514 33.811027,12.56442 33.251953,11.546875 33.045032,11.170148 30.758457,9.6256529 30.365234,9.4179688 c -0.0064,-0.00328 -0.03267,-0.030195 -0.03711,-0.03125 l -0.002,0.00586 C 30.311755,9.3853911 30.211631,9.3141551 30.205078,9.3125 l -0.002,0.00391 c -0.0051,-0.00171 -0.0086,-0.00347 -0.0098,-0.00391 -0.02318,0.02138 0.156628,0.4156128 0.34961,0.757813 1.976739,3.505822 3.275569,8.767482 2.615234,11.71289 -0.01104,0.04576 -0.02043,0.09142 -0.03711,0.138672 -8.42e-4,0.0024 -0.0033,0.008 -0.0039,0.0098 0,0 0,0.002 0,0.002 -0.0016,-5e-4 -0.0045,-0.0016 -0.0059,-0.002 -0.01542,0.0057 -0.06045,0.01203 -0.08008,0.01758 C 32.491659,21.251707 32.020233,20.652384 31.361328,19.783203 27.314455,14.544025 19.924929,6.8503332 12.292969,4.4277344 11.357393,4.1600477 10.541933,4.0162645 9.8183594,4.0019531 Z"/>
 <path d="M 9.8183594 3.0019531 C 8.6124033 2.9781009 7.6611652 3.3161637 6.828125 4.0527344 C 4.7192287 5.927018 4.4146848 9.8031747 6.0292969 15.216797 C 6.1446201 14.980232 6.2605044 14.744838 6.3847656 14.513672 C 5.2838578 10.175115 5.3392047 8.9266918 7.1230469 7.3613281 C 8.5563047 6.1092343 10.826515 6.0067724 13.664062 7.0664062 C 18.707107 8.9496014 24.339184 12.030742 30.074219 19.371094 C 30.615481 20.06386 30.997455 20.53298 31.458984 21.113281 C 29.990067 21.139869 27.760518 20.99458 25.839844 20.646484 C 18.614285 19.337115 11.809698 16.789967 8.6191406 13.433594 C 8.333442 13.133048 8.0987664 12.908654 8.0976562 12.933594 C 8.096343 12.959194 8.7399656 14.276362 9.5273438 15.859375 L 10.712891 18.626953 L 12.472656 19.486328 C 14.38684 20.434514 16.825516 21.543304 22.121094 23.871094 C 27.922606 26.421234 30.519769 27.646933 33.154297 29.080078 C 35.265633 30.228621 37.411459 31.62929 38.494141 32.564453 C 38.863049 32.884401 38.948069 32.96631 38.980469 33 C 38.981709 32.975912 39.008767 32.858872 38.998047 32.763672 C 38.927892 32.244436 38.523733 30.191195 38.148438 28.291016 C 38.067238 27.860602 37.979074 27.431694 37.894531 27.001953 C 37.855672 26.806116 37.804125 26.539534 37.769531 26.365234 C 37.71451 26.088009 37.652235 25.825831 37.595703 25.552734 C 36.800095 21.70042 35.872788 17.876302 34.695312 14.111328 C 34.152327 12.396514 33.811027 11.56442 33.251953 10.546875 C 33.045032 10.170148 30.758457 8.6256529 30.365234 8.4179688 C 30.358801 8.4146896 30.332567 8.3877739 30.328125 8.3867188 L 30.326172 8.3925781 C 30.311755 8.3853911 30.211631 8.3141551 30.205078 8.3125 L 30.203125 8.3164062 C 30.198025 8.3146963 30.194559 8.3129358 30.193359 8.3125 C 30.170178 8.3338795 30.349987 8.7281128 30.542969 9.0703125 C 32.519708 12.576135 33.818538 17.837795 33.158203 20.783203 C 33.147161 20.828965 33.137772 20.87462 33.121094 20.921875 C 33.120252 20.924227 33.117814 20.929839 33.117188 20.931641 C 33.117188 20.931641 33.117188 20.933594 33.117188 20.933594 C 33.115586 20.933094 33.112728 20.931952 33.111328 20.931641 C 33.09591 20.937293 33.050879 20.943668 33.03125 20.949219 C 32.491659 20.251707 32.020233 19.652384 31.361328 18.783203 C 27.314455 13.544025 19.924929 5.8503332 12.292969 3.4277344 C 11.357393 3.1600477 10.541933 3.0162645 9.8183594 3.0019531 z" style="fill:#ffffff"/>
</svg>
